small/extra/apps/standard/wps-office-wpsmain.svg

<?xml version="1.0" encoding="UTF-8" standalone="no"?>
<svg
   xmlns:dc="http://purl.org/dc/elements/1.1/"
   xmlns:cc="http://creativecommons.org/ns#"
   xmlns:rdf="http://www.w3.org/1999/02/22-rdf-syntax-ns#"
   xmlns:svg="http://www.w3.org/2000/svg"
   xmlns="http://www.w3.org/2000/svg"
   xmlns:sodipodi="http://sodipodi.sourceforge.net/DTD/sodipodi-0.dtd"
   xmlns:inkscape="http://www.inkscape.org/namespaces/inkscape"
   viewBox="0 0 512 512"
   id="svg2"
   version="1.1"
   inkscape:version="0.91+devel r13804 custom"
   sodipodi:docname="wps-office-wpsmain.svg">
  <metadata
     id="metadata472">
    <rdf:RDF>
      <cc:Work
         rdf:about="">
        <dc:format>image/svg+xml</dc:format>
        <dc:type
           rdf:resource="http://purl.org/dc/dcmitype/StillImage" />
        <dc:title></dc:title>
      </cc:Work>
    </rdf:RDF>
  </metadata>
  <sodipodi:namedview
     pagecolor="#ffffff"
     bordercolor="#666666"
     borderopacity="1"
     objecttolerance="10"
     gridtolerance="10"
     guidetolerance="10"
     inkscape:pageopacity="0"
     inkscape:pageshadow="2"
     inkscape:window-width="1366"
     inkscape:window-height="709"
     id="namedview470"
     showgrid="false"
     inkscape:zoom="0.4609375"
     inkscape:cx="683.38983"
     inkscape:cy="174.88241"
     inkscape:window-x="-2"
     inkscape:window-y="-3"
     inkscape:window-maximized="1"
     inkscape:current-layer="svg2" />
  <defs
     id="defs4" />
  <path
     inkscape:connector-curvature="0"
     d="M 26,0 C 11.603,0 0,11.603 0,26 l 0,460 c 0,14.397 11.603,26 26,26 l 460,0 c 14.397,0 26,-11.603 26,-26 L 512,26 C 512,11.603 500.397,0 486,0 L 26,0"
     style="fill:#0078ad"
     id="path380600" />
  <text
     sodipodi:linespacing="125%"
     y="149.32001"
     x="-1951.05"
     line-height="125%"
     style="font-size:208.33000183px;line-height:125%;font-family:'Gentium Book Basic';letter-spacing:0;word-spacing:0"
     id="text380602">
    <tspan
       y="149.32001"
       x="-1951.05"
       id="tspan380604" />
  </text>
  <text
     transform="scale(4.0128205,0.24920128)"
     y="36.329815"
     x="-168.47913"
     style="font-size:75.69999695px;font-family:Arial;text-anchor:middle"
     id="text380606" />
  <text
     sodipodi:linespacing="125%"
     y="-168.84"
     x="-60.932999"
     line-height="125%"
     style="font-size:129.22999573px;line-height:125%;font-family:'Gentium Book Basic';letter-spacing:0;word-spacing:0"
     id="text380608">
    <tspan
       y="-168.84"
       x="-60.932999"
       id="tspan380610" />
  </text>
  <text
     transform="scale(4.0128205,0.24920128)"
     y="-1026.6448"
     x="181.89906"
     style="font-size:46.95399857px;font-family:Arial;text-anchor:middle"
     id="text380612" />
  <text
     sodipodi:linespacing="125%"
     y="-248.84"
     x="520.34003"
     line-height="125%"
     style="font-size:129.22999573px;line-height:125%;font-family:'Gentium Book Basic';letter-spacing:0;word-spacing:0"
     id="text380614">
    <tspan
       y="-248.84"
       x="520.34003"
       id="tspan380616" />
  </text>
  <text
     transform="scale(4.0128205,0.24920128)"
     y="-1347.683"
     x="326.74832"
     style="font-size:46.95399857px;font-family:Arial;text-anchor:middle"
     id="text380618" />
  <text
     sodipodi:linespacing="125%"
     y="-430.10001"
     x="-551.23999"
     line-height="125%"
     style="font-size:129.22999573px;line-height:125%;font-family:'Gentium Book Basic';letter-spacing:0;word-spacing:0"
     id="text380620">
    <tspan
       y="-430.10001"
       x="-551.23999"
       id="tspan380622" />
  </text>
  <text
     transform="scale(4.0128205,0.24920128)"
     y="-2075.0293"
     x="59.706696"
     style="font-size:46.95399857px;font-family:Arial;text-anchor:middle"
     id="text380624" />
  <text
     sodipodi:linespacing="125%"
     y="-646.57001"
     x="546.81"
     line-height="125%"
     style="font-size:129.22999573px;line-height:125%;font-family:'Gentium Book Basic';letter-spacing:0;word-spacing:0"
     id="text380626">
    <tspan
       y="-646.57001"
       x="546.81"
       id="tspan380628" />
  </text>
  <text
     transform="scale(4.0128205,0.24920128)"
     y="-2943.6948"
     x="333.3483"
     style="font-size:46.95399857px;font-family:Arial;text-anchor:middle"
     id="text380630" />
  <text
     sodipodi:linespacing="125%"
     y="-726.57001"
     x="1128.08"
     line-height="125%"
     style="font-size:129.22999573px;line-height:125%;font-family:'Gentium Book Basic';letter-spacing:0;word-spacing:0"
     id="text380632">
    <tspan
       y="-726.57001"
       x="1128.08"
       id="tspan380634" />
  </text>
  <text
     transform="scale(4.0128205,0.24920128)"
     y="-3264.7234"
     x="478.18756"
     style="font-size:46.95399857px;font-family:Arial;text-anchor:middle"
     id="text380636" />
  <text
     sodipodi:linespacing="125%"
     y="-1198.97"
     x="738.96002"
     line-height="125%"
     style="font-size:129.22999573px;line-height:125%;font-family:'Gentium Book Basic';letter-spacing:0;word-spacing:0"
     id="text380638">
    <tspan
       y="-1198.97"
       x="738.96002"
       id="tspan380640" />
  </text>
  <text
     transform="scale(4.0128205,0.24920128)"
     y="-5160.3638"
     x="381.22806"
     style="font-size:46.95399857px;font-family:Arial;text-anchor:middle"
     id="text380642" />
  <text
     sodipodi:linespacing="125%"
     y="-1278.98"
     x="1320.22"
     line-height="125%"
     style="font-size:129.22999573px;line-height:125%;font-family:'Gentium Book Basic';letter-spacing:0;word-spacing:0"
     id="text380644">
    <tspan
       y="-1278.98"
       x="1320.22"
       id="tspan380646" />
  </text>
  <text
     transform="scale(4.0128205,0.24920128)"
     y="-5481.4023"
     x="526.06732"
     style="font-size:46.95399857px;font-family:Arial;text-anchor:middle"
     id="text380648" />
  <text
     sodipodi:linespacing="125%"
     y="135.74001"
     x="-512.58002"
     line-height="125%"
     style="font-size:208.33000183px;line-height:125%;font-family:'Gentium Book Basic';letter-spacing:0;word-spacing:0"
     id="text380650">
    <tspan
       y="135.74001"
       x="-512.58002"
       id="tspan380652" />
  </text>
  <path
     d="M 353.10938 41 L 353.10938 235.24023 L 158.89062 41.019531 L 59.679688 41.019531 L 59.669922 41.009766 L 59.669922 41.019531 L 59.669922 470.96094 L 100.70898 512 L 486 512 C 500.397 512 512 500.397 512 486 L 512 100.66016 L 452.33984 41 L 353.11914 41 L 452.33984 140.2207 L 452.33984 140.23047 L 353.10938 41 z "
     id="path380656"
     style="opacity:0.25" />
  <path
     inkscape:connector-curvature="0"
     d="m 59.669,41.01 0,429.95 99.22,0 0,-0.432 97.01,-91.83 97.22,92.04 0,0.216 0.216,0 0.053,0.053 0.053,-0.053 98.89,0 0,-429.95 -99.22,0 0,295.61 -97.22,-93.77 -97.01,92.32 0,-294.14 -99.22,0"
     style="fill:#ffffff"
     id="path380690" />
</svg>

<?xml version="1.0" encoding="UTF-8" standalone="no"?>
<svg
   xmlns:dc="http://purl.org/dc/elements/1.1/"
   xmlns:cc="http://creativecommons.org/ns#"
   xmlns:rdf="http://www.w3.org/1999/02/22-rdf-syntax-ns#"
   xmlns:svg="http://www.w3.org/2000/svg"
   xmlns="http://www.w3.org/2000/svg"
   xmlns:sodipodi="http://sodipodi.sourceforge.net/DTD/sodipodi-0.dtd"
   xmlns:inkscape="http://www.inkscape.org/namespaces/inkscape"
   viewBox="0 0 512 512"
   id="svg2"
   version="1.1"
   inkscape:version="0.91 r13725"
   sodipodi:docname="wps-office-wpsmain.svg">
  <metadata
     id="metadata472">
    <rdf:RDF>
      <cc:Work
         rdf:about="">
        <dc:format>image/svg+xml</dc:format>
        <dc:type
           rdf:resource="http://purl.org/dc/dcmitype/StillImage" />
        <dc:title />
      </cc:Work>
    </rdf:RDF>
  </metadata>
  <sodipodi:namedview
     pagecolor="#ffffff"
     bordercolor="#666666"
     borderopacity="1"
     objecttolerance="10"
     gridtolerance="10"
     guidetolerance="10"
     inkscape:pageopacity="0"
     inkscape:pageshadow="2"
     inkscape:window-width="1366"
     inkscape:window-height="709"
     id="namedview470"
     showgrid="false"
     inkscape:zoom="0.4609375"
     inkscape:cx="418.71186"
     inkscape:cy="156.44173"
     inkscape:window-x="-2"
     inkscape:window-y="-3"
     inkscape:window-maximized="1"
     inkscape:current-layer="svg2" />
  <defs
     id="defs4" />
  <path
     inkscape:connector-curvature="0"
     d="M 26,0 C 11.603,0 0,11.603 0,26 l 0,460 c 0,14.397 11.603,26 26,26 l 460,0 c 14.397,0 26,-11.603 26,-26 L 512,26 C 512,11.603 500.397,0 486,0 L 26,0"
     style="fill:#0078ad"
     id="path380600" />
  <path
     inkscape:connector-curvature="0"
     d="m 353.10938,41 0,194.24023 -194.21876,-194.2207 -99.21093,0 -0.01,-0.01 0,0.01 0,429.94141 L 100.70878,512 485.9998,512 c 14.397,0 26,-11.603 26,-26 l 0,-385.33984 L 452.33964,41 l -99.2207,0 99.2207,99.2207 0,0.01 L 353.10918,41 Z"
     id="path380656"
     style="opacity:0.25" />
  <path
     inkscape:connector-curvature="0"
     d="m 59.669,41.01 0,429.95 99.22,0 0,-0.432 97.01,-91.83 97.22,92.04 0,0.216 0.216,0 0.053,0.053 0.053,-0.053 98.89,0 0,-429.95 -99.22,0 0,295.61 -97.22,-93.77 -97.01,92.32 0,-294.14 -99.22,0"
     style="fill:#ffffff"
     id="path380690" />
</svg>
